X:68  
T:Reel de Montebello
C:Richard Forest
O:Qu\'ebec
Q:1/4=210
R:reel
M:C|   
L:1/8     
K:A Minor
|: EABc ecBA | FABc ecBA | GABc dBGB | edBA G(E/F/) ED |
EABc ecBA | FABc AcBA | GABc dBGE | [1EDEG A3 A :|
[2EDEG A2 ce |: aece gecA | GABc dcBd | gddf ddgd |
edef (3efe ce | aece gecA | GABc dcBd | gedg edBd |
[1cBcd cAce :|2 cBcd cBAG || E8 ||
